X: 20609
T: John Of Paris
R: jig
M: 6/8
K: Gmajor
d/c/|:B2 B BAB|d2 B BAB|c2 e g2 e|d2 B BAB|c2 A AGA|
[1 B2 G G2 B|A2 B A2 B|A2 d d2 c:|2 B2 G G2 F|Eed cBA|B2 G G2||
B|d2 c Bcd|e2 f g2 a|b2 a gfe|d2 c Bcd|
e2 e ecA|d2 d dBG|c2 A B2 G|FGF D3|
B2 B BAB|d2 B BAB|c2 e g2 e|d2 B BAB|
c2 A AGA|B2 G G2 F|Eed cBA|B2 G G2||

